X:1
T:Tallis’ Lamentation, LMD
T:Tallis’ Lamentation, LMD
T:Melody from Day’s Psalter, 1562
T:Public Domain Courtesy of the Cyber Hymnal™
C:Melody from Day’s Psalter, 1562
Z:Public Domain
Z:Courtesy of the Cyber Hymnal™
%%score ( 1 2 ) ( 3 4 )
L:1/8
M:6/4
K:F
V:1 treble 
V:2 treble 
V:3 bass 
V:4 bass 
V:1
 [A,D]2 | [DF]4 [EG]2 [DF]4 [CE]2 | F2 z2 D4 [DF]2 x4 | [FA]4 [FA]2 [EG]4 [DF]2 | %4
 G2 z2 D4 [DF]2 x4 | (A3 G) F2 (c3 B) [FA]2 | B2 z2 F4 [FA]2 x4 | [FA]4 [DG]2 [EG]4 [DF]2 | %8
 G2 z2 D4 [DF]2 x4 | A2 =B2 [Gc]2 [Ac]4 [Ad]2 | A2 z2 A4 [Ec]2 x4 | [G=B]4 A2 [Bd]4 [Ac]2 | %12
 A2 z2 A4 [FA]2 x4 | [EA]4 [EG]2 [Cc]4 [Ac]2 | [Gc]2 [FA]4 [EA]4 [EG]2 | [GB]4 [FA]2 [EG]4 [DF]2 | %16
 G2 z2 D4 x6 |] %17
V:2
 x2 | x12 | D4 (E4 ^C2) D4 | x12 | D4 (E4 ^C2) D4 | F4 F2 G4 x2 | F4 (G4 E2) F4 | x12 | %8
 D4 (E4 ^C2) D4 | F4 x8 | A4 (=B4 ^G2) A4 | x4 A2 x6 | A4 (=B4 ^G2) A4 | x12 | x12 | x12 | %16
 D4 (E4 ^C2) D4 |] %17
V:3
 [D,F,]2 | [D,A,]4 [C,C]2 [D,A,]4 [A,,A,]2 | A,4 z2 A,2 [D,F,]4 [D,A,]2 | %3
 [D,D]4 [F,C]2 [C,C]4 [D,A,]2 | [G,,=B,]2 [A,,A,]4 [D,F,]4 [D,A,]2 x2 | %5
 [D,D]4 [D,D]2 [C,E]4 [F,C]2 | [B,,D]2 [C,C]4 [F,,A,]4 [D,D]2 x2 | %7
 [D,D]4 [G,,=B,]2 (C3 _B,) [D,A,]2 | [G,,=B,]2 [A,,A,]4 [D,F,]4 [D,A,]2 x2 | %9
 [D,D]4 [C,E]2 [F,F]4 [D,F]2 | [F,D]2 [E,=B,]4 [A,,C]4 [A,E]2 x2 | [E,E]4 [F,C]2 (G3 F) [A,E]2 | %12
 [F,D]2 [E,=B,]4 [A,,C]4 [D,A,]2 x2 | [A,,C]4 [E,=B,]2 (A,3 B,) (CD) | %14
 [C,E]2 [D,D]4 [A,,^C]4 [=C,=C]2 | [G,,D]4 [A,,C]2 C3 B, [D,A,]2 | [G,,=B,]2 [A,,A,]4 [D,F,]4 x4 |] %17
V:4
 x2 | x12 | D,2 A,,4 x8 | x12 | x14 | x12 | x14 | x6 C,4 x2 | x14 | x12 | x14 | x6 G,4 x2 | x14 | %13
 x6 F,4 F,2 | x12 | x6 C,4 x2 | x14 |] %17

